X: 19691
T: Jenny Dang The Weaver
R: reel
M: 4/4
K: Dmajor
eBBA B2dB|ABde fedf|eAAG A2dB|ABdf gfed|
eBBA B2dB|ABde fedf|eAAG A2dB|ABdf gfec||
d2fd efge|defz ~g2fe|d2fd efge|fgaf bgec|
d2fd efge|defz ~g3a|(3bag af gfed|Bdef g2ag||

